TCanvas/noframe.svg

<svg xmlns="http://www.w3.org/2000/svg" viewBox="0 0 1200 800" preserveAspectRatio="none" width="1200" height="800">
 <path d="M0,0H1200V800H0Z" style="fill: white;"></path>
 <g>
  <g transform="translate(120,80)">
   <path d="M0,0H960V640H0Z" style="fill: white; stroke: black; stroke-width: 1;"></path>
   <svg x="0" y="0" overflow="hidden" width="960" height="640" viewBox="0 0 960 640">
    <g>
     <path d="M0,640h1v-1v1h1v-1h1v-1h1v-1h1v1v-2h1v1v-4h1v-4v5v-4h1v-4h1v-3v4v-1h1v-6v5v-3h1v-1v-3h1v-21v23v-10h1v3v4v-3h1v-4h1v-4v6v-4h1v-4v7v-5h1v-9v10v-4h1v-7v10v-5h1v-2v5v-3h1v-5v5v-2h1v-6v7v-5h1v3v-9h1v3v-5h1v-557v559h1v-113v129v-62h1v29v35v-5h1v1v5h1v-1v-4h1v4v-40h1v15v26h1v-4v3h1v-4v5v-3h1v-2v4v-2h1v-41v42v-1h1v-1v4h1v-4h1v-1v3h1v-3v4v-3h1v4v-4h1v-1v5v-1h1v-3v4v-2h1v-3v6v-4h1v-1v4v-3h1v-1v5v-3h1v-461v462v-67h1v45v30h1v-4v4v-1h1v-5v6v-3h1v-1v5h1v-4v4v-3h1v3v-2h1v-2v4v-2h1v3v-7h1v1v7v-2h1v-1v2h1v-3v4v-3h1v-1v4h1v-2v3v-2h1v-4v5v-1h1v3v-14h1v-86v100v-3h1v4v-1h1v-18h1v-5v24h1v1v-4h1v3v-1h1v-12v13h1v-2v4v-1h1v-90v89v-48h1v18v33v-1h1v-3v4v-2h1v-2v5v-1h1v-1v1h1v1v-6h1v-2v8v-2h1v-1v4v-2h1v-1v3v-2h1v-5v7v-6h1v3v4h1v-3v3v-1h1v-1v2h1v-2v2v-1h1v2v-3h1v-1v3h1v-3v3v-1h1v-1v3v-2h1v-1v3v-1h1v-1v2v-1h1v-2v3h1v-3h1v4v-3h1v-12v13h1v-2v3v-1h1v-13v13v-4h1v-3v8v-7h1v-2v8h1v1v-3h1v3h1v-2v3v-2h1v-2v4v-1h1v-3v4v-2h1v1v-4h1v5v-3h1v-2v4v-1h1v-3v4v-2h1v3v-3h1v-155v156v-100h1v37v66h1v-20h1v-48v68v-1h1v1v-3h1v-11v13h1v-3v4v-2h1v4v-1h1v-5h1v-37v42v-2h1v2v-2h1v-17v19h1v-84v85v-82h1v18v64v-1h1v1v-2h1v-3v5h1v-2v2v-1h1v-1v2h1v-2v2v-1h1v2v-1h1v1v-3h1v3v-1h1v-2v3v-2h1v2v-1h1v-1v3h1v-2h1v2v-1h1v1h1v-2v2v-1h1v1v-1h1v-3v4h1v-1v2v-1h1v-6v6v-4h1v-2v7h1v-1v-17h1v-13v31h1v-2v3v-2h1v2v-1h1v-1v1h1v-5h1v-1v6h1v-10h1v1v9v-1h1v-1v-109h1v-102v204h1v-1v12v-1h1v-1v2h1v-2v2h1v-4v3v-1h1v2v-1h1v-1v2v-1h1v-1v2v-1h1v-1v2v-1h1v1h1v-1v1h1v-1h1v1v-2h1v-29v28v-18h1v6v12h1v1v2h1v-3h1v-33v35h1v-7v8v-1h1v1v-1h1v-11v12v-1h1v-33v33v-5h1v2v5v-1h1v-10v11v-6h1v5v-12h1v-131v140h1v-10v13v-3h1v3h1v-1v2h1v-1v2v-1h1v-1v1h1v-1h1v1h1v-1v2v-1h1v-2v-9h1v-48v53v-30h1v13v23h1v-1v1h2v1h1v-1v1h1v-1v1h1v-1h1v1v-1h1v-1v2v-1h1v1v-1h1v-1v1h1v-5h1v-8v14v-1h1v1v-1h1v-1v1h1v-1v1h1v1v-1h1v1h1v-1h1v1v-1h1v1v-1h1v1v-1h1v-1v1h1v1v-1h1v-5v5v-3h1v3v-13h1v-4v17h1v1h1v-1h1v1v-1h1v1v-1h1v1v-1h1v-19h1v-10v30h1v-1h1v1h1v-1v1h1v-1h1v1h1v-1h1v-1v2h1v-1h1v1v-1h1v1h1v-1h1v1h1v-1h1v1v-1h1v1h1v-1h1v1h1v-1v1h1v-1v1h1v-1v1h1v-1v1h1v-1h1v1h1v-1h1v1h1v-1v1h1v-1v1h1v-1h1v1v-1h1v1v-1h1v-1v1h1v1v-1h1v1v-1h1v1v-1h1v1v-1h1v1v-1h1v1v-1h1v1h1v-1v1h1v-1h1v1v-1h1v1v-1h1v-4v4v-1h1v2v-1h1v-1v2h1v-2v1h1v1h1v-1h1v-1v2v-1h1v1v-1h1v1h1v-3v2h1v1v-1h1v1h1v-1v1h1v-1h1v1v-1h1v1v-1h1v1v-1h1v-1v2v-1h1v1h1v-1v1h1v-1h1v1v-1h1v1h1v-1h1v1h1v-1v1h1v-1v1h1v-1h1v-1v2v-1h1v1h1v-1h1v1v-1h1v1v-1h1v1h1v-2v2v-1h1v1v-1h1v1v-1h1v-1h1v1v-3h1v3v-1h1v2v-1h1v-1v2v-1h1v1v-1h1v-1v1h1v-1v1h2v-1v2v-1h2v-1v1h1v-1v2v-1h2v-1v2v-1h1v-1v2v-1h1v-1h1v1h1v-1h1v1v-1h1v-3v4h1v-1v2v-1h1v1h1v-1v1h1v-1h1v1v-1h1v-7v8v-5h1v2v3h1v-1v1h1v-1v1h2v-1v1h1v-1v1h1v-1v1h1v-1h1v2v-1h1v-2v2v-1h1v-1v2h2v1v-1h3v1h1v-1h1v1v-1h1v1v-1h1v1v-1h1v1v-1h1v1h1v-1h1v1v-1h1v1v-1h1v1v-1h1v1h1v-1v1h1v-1v1h1v-1v1h1v-1v1h1v-1v1h1v-1v1h1v-1v1h1v-1v1h1v-1h1v1h1v-1v1h1v-1v1h1v-1v1h1v-1v1h1v-1v1h1v-1v1h1v-1h1v1v-1h1v1v-2h1v1v-74h1v-40v114h1v1h4v-1v1h26v-1v1h46v-1h1v1h1v-1v1h18v-1h1v1h1v-1v1h17v-1h1v1h63v-1h1v1h40v-1h1v-2v2h1v1h363" style="stroke-linejoin: miter; stroke: black; stroke-width: 1; fill: none;"></path>
    </g>
   </svg>
   <g>
    <g transform="translate(0,640)">
     <path d="M0,0h960M14,-12v12m24,-12v12m24,-12v12m24,-12v12m24,-24v24m24,-12v12m24,-12v12m24,-12v12m24,-12v12m24,-24v24m24,-12v12m24,-12v12m24,-12v12m24,-12v12m24,-24v24m24,-12v12m24,-12v12m24,-12v12m24,-12v12m24,-24v24m24,-12v12m24,-12v12m24,-12v12m24,-12v12m24,-24v24m24,-12v12m24,-12v12m24,-12v12m24,-12v12m24,-24v24m24,-12v12m24,-12v12m24,-12v12m24,-12v12m24,-24v24m24,-12v12m24,-12v12m24,-12v12m24,-12v12m24,-24v24" style="stroke: black; stroke-width: 1;"></path>
     <g font-family="Arial" font-size="32" space="preserve" font-weight="bold" fill="black" text-anchor="middle">
      <text dy=".8em" transform="translate(110,6)">
       500
      </text>
      <text dy=".8em" transform="translate(230,6)">
       1000
      </text>
      <text dy=".8em" transform="translate(350,6)">
       1500
      </text>
      <text dy=".8em" transform="translate(470,6)">
       2000
      </text>
      <text dy=".8em" transform="translate(590,6)">
       2500
      </text>
      <text dy=".8em" transform="translate(710,6)">
       3000
      </text>
      <text dy=".8em" transform="translate(830,6)">
       3500
      </text>
      <text dy=".8em" transform="translate(950,6)">
       4000
      </text>
     </g>
     <g font-family="Arial" font-size="32" space="preserve" font-weight="bold" transform="translate(960,51)">
      <text fill="black" text-anchor="end" dy=".4em">
       energy (keV)
      </text>
     </g>
    </g>
    <g>
     <path d="M0,0v640M36,640h-36m18,-24h-18m18,-24h-18m18,-23h-18m36,-24h-36m18,-24h-18m18,-24h-18m18,-23h-18m36,-24h-36m18,-24h-18m18,-24h-18m18,-23h-18m36,-24h-36m18,-24h-18m18,-24h-18m18,-23h-18m36,-24h-36m18,-24h-18m18,-24h-18m18,-24h-18m36,-23h-36m18,-24h-18m18,-24h-18m18,-24h-18m36,-23h-36m18,-24h-18m18,-24h-18" style="stroke: black; stroke-width: 1;"></path>
     <g font-family="Arial" font-size="32" space="preserve" font-weight="bold" fill="black" text-anchor="end">
      <text dy=".4em" transform="translate(-4,640)">
       0
      </text>
      <text dy=".4em" transform="translate(-4,545)">
       2000
      </text>
      <text dy=".4em" transform="translate(-4,450)">
       4000
      </text>
      <text dy=".4em" transform="translate(-4,355)">
       6000
      </text>
      <text dy=".4em" transform="translate(-4,260)">
       8000
      </text>
      <text dy=".4em" transform="translate(-4,165)">
       10000
      </text>
      <text dy=".4em" transform="translate(-4,70)">
       12000
      </text>
     </g>
     <g font-family="Arial" font-size="32" space="preserve" font-weight="bold" transform="translate(-77,0)">
      <text fill="black" text-anchor="end" dy=".4em" transform=" rotate(270)">
       counts
      </text>
     </g>
    </g>
   </g>
  </g>
  <g transform="translate(936,52)" font-family="Arial" font-size="22" space="preserve" fill="black">
   <path d="M0,0H240V128H0Z" style="fill: white; stroke: black; stroke-width: 1;"></path>
   <text text-anchor="middle" dy=".4em" transform="translate(120,16)">
    HPGe singles_1
   </text>
   <text text-anchor="start" dy=".4em" transform="translate(12,48)">
    Entries
   </text>
   <text text-anchor="end" dy=".4em" transform="translate(228,48)">
    1391705
   </text>
   <text text-anchor="start" dy=".4em" transform="translate(12,80)">
    Mean
   </text>
   <text text-anchor="end" dy=".4em" transform="translate(228,80)">
    422.0
   </text>
   <text text-anchor="start" dy=".4em" transform="translate(12,112)">
    Std Dev
   </text>
   <text text-anchor="end" dy=".4em" transform="translate(228,112)">
    353.4
   </text>
   <path d="M0,32h240" style="stroke: black; stroke-width: 1;"></path>
  </g>
 </g>
</svg>

<svg xmlns="http://www.w3.org/2000/svg" viewBox="0 0 1200 800" preserveAspectRatio="none" width="1200" height="800">
 <path d="M0,0H1200V800H0Z" style="fill: white;"></path>
 <g>
  <g transform="translate(120,80)">
   <path d="M0,0H960V640H0Z" style="fill: white; stroke: black; stroke-width: 1;"></path>
   <svg x="0" y="0" overflow="hidden" width="960" height="640" viewBox="0 0 960 640">
    <g>
     <path d="M0,640h1v-1v1h1v-1h1v-1h1v-1h1v1v-2h1v1v-4h1v-4v5v-4h1v-4h1v-3v4v-1h1v-6v5v-3h1v-1v-3h1v-21v23v-10h1v3v4v-3h1v-4h1v-4v6v-4h1v-4v7v-5h1v-9v10v-4h1v-7v10v-5h1v-2v5v-3h1v-5v5v-2h1v-6v7v-5h1v3v-9h1v3v-5h1v-557v559h1v-113v129v-62h1v29v35v-5h1v1v5h1v-1v-4h1v4v-40h1v15v26h1v-4v3h1v-4v5v-3h1v-2v4v-2h1v-41v42v-1h1v-1v4h1v-4h1v-1v3h1v-3v4v-3h1v4v-4h1v-1v5v-1h1v-3v4v-2h1v-3v6v-4h1v-1v4v-3h1v-1v5v-3h1v-461v462v-67h1v45v30h1v-4v4v-1h1v-5v6v-3h1v-1v5h1v-4v4v-3h1v3v-2h1v-2v4v-2h1v3v-7h1v1v7v-2h1v-1v2h1v-3v4v-3h1v-1v4h1v-2v3v-2h1v-4v5v-1h1v3v-14h1v-86v100v-3h1v4v-1h1v-18h1v-5v24h1v1v-4h1v3v-1h1v-12v13h1v-2v4v-1h1v-90v89v-48h1v18v33v-1h1v-3v4v-2h1v-2v5v-1h1v-1v1h1v1v-6h1v-2v8v-2h1v-1v4v-2h1v-1v3v-2h1v-5v7v-6h1v3v4h1v-3v3v-1h1v-1v2h1v-2v2v-1h1v2v-3h1v-1v3h1v-3v3v-1h1v-1v3v-2h1v-1v3v-1h1v-1v2v-1h1v-2v3h1v-3h1v4v-3h1v-12v13h1v-2v3v-1h1v-13v13v-4h1v-3v8v-7h1v-2v8h1v1v-3h1v3h1v-2v3v-2h1v-2v4v-1h1v-3v4v-2h1v1v-4h1v5v-3h1v-2v4v-1h1v-3v4v-2h1v3v-3h1v-155v156v-100h1v37v66h1v-20h1v-48v68v-1h1v1v-3h1v-11v13h1v-3v4v-2h1v4v-1h1v-5h1v-37v42v-2h1v2v-2h1v-17v19h1v-84v85v-82h1v18v64v-1h1v1v-2h1v-3v5h1v-2v2v-1h1v-1v2h1v-2v2v-1h1v2v-1h1v1v-3h1v3v-1h1v-2v3v-2h1v2v-1h1v-1v3h1v-2h1v2v-1h1v1h1v-2v2v-1h1v1v-1h1v-3v4h1v-1v2v-1h1v-6v6v-4h1v-2v7h1v-1v-17h1v-13v31h1v-2v3v-2h1v2v-1h1v-1v1h1v-5h1v-1v6h1v-10h1v1v9v-1h1v-1v-109h1v-102v204h1v-1v12v-1h1v-1v2h1v-2v2h1v-4v3v-1h1v2v-1h1v-1v2v-1h1v-1v2v-1h1v-1v2v-1h1v1h1v-1v1h1v-1h1v1v-2h1v-29v28v-18h1v6v12h1v1v2h1v-3h1v-33v35h1v-7v8v-1h1v1v-1h1v-11v12v-1h1v-33v33v-5h1v2v5v-1h1v-10v11v-6h1v5v-12h1v-131v140h1v-10v13v-3h1v3h1v-1v2h1v-1v2v-1h1v-1v1h1v-1h1v1h1v-1v2v-1h1v-2v-9h1v-48v53v-30h1v13v23h1v-1v1h2v1h1v-1v1h1v-1v1h1v-1h1v1v-1h1v-1v2v-1h1v1v-1h1v-1v1h1v-5h1v-8v14v-1h1v1v-1h1v-1v1h1v-1v1h1v1v-1h1v1h1v-1h1v1v-1h1v1v-1h1v1v-1h1v-1v1h1v1v-1h1v-5v5v-3h1v3v-13h1v-4v17h1v1h1v-1h1v1v-1h1v1v-1h1v1v-1h1v-19h1v-10v30h1v-1h1v1h1v-1v1h1v-1h1v1h1v-1h1v-1v2h1v-1h1v1v-1h1v1h1v-1h1v1h1v-1h1v1v-1h1v1h1v-1h1v1h1v-1v1h1v-1v1h1v-1v1h1v-1v1h1v-1h1v1h1v-1h1v1h1v-1v1h1v-1v1h1v-1h1v1v-1h1v1v-1h1v-1v1h1v1v-1h1v1v-1h1v1v-1h1v1v-1h1v1v-1h1v1v-1h1v1h1v-1v1h1v-1h1v1v-1h1v1v-1h1v-4v4v-1h1v2v-1h1v-1v2h1v-2v1h1v1h1v-1h1v-1v2v-1h1v1v-1h1v1h1v-3v2h1v1v-1h1v1h1v-1v1h1v-1h1v1v-1h1v1v-1h1v1v-1h1v-1v2v-1h1v1h1v-1v1h1v-1h1v1v-1h1v1h1v-1h1v1h1v-1v1h1v-1v1h1v-1h1v-1v2v-1h1v1h1v-1h1v1v-1h1v1v-1h1v1h1v-2v2v-1h1v1v-1h1v1v-1h1v-1h1v1v-3h1v3v-1h1v2v-1h1v-1v2v-1h1v1v-1h1v-1v1h1v-1v1h2v-1v2v-1h2v-1v1h1v-1v2v-1h2v-1v2v-1h1v-1v2v-1h1v-1h1v1h1v-1h1v1v-1h1v-3v4h1v-1v2v-1h1v1h1v-1v1h1v-1h1v1v-1h1v-7v8v-5h1v2v3h1v-1v1h1v-1v1h2v-1v1h1v-1v1h1v-1v1h1v-1h1v2v-1h1v-2v2v-1h1v-1v2h2v1v-1h3v1h1v-1h1v1v-1h1v1v-1h1v1v-1h1v1v-1h1v1h1v-1h1v1v-1h1v1v-1h1v1v-1h1v1h1v-1v1h1v-1v1h1v-1v1h1v-1v1h1v-1v1h1v-1v1h1v-1v1h1v-1v1h1v-1h1v1h1v-1v1h1v-1v1h1v-1v1h1v-1v1h1v-1v1h1v-1v1h1v-1h1v1v-1h1v1v-2h1v1v-74h1v-40v114h1v1h4v-1v1h26v-1v1h46v-1h1v1h1v-1v1h18v-1h1v1h1v-1v1h17v-1h1v1h63v-1h1v1h40v-1h1v-2v2h1v1h363" style="stroke-linejoin: miter; stroke: black; stroke-width: 1; fill: none;"></path>
    </g>
   </svg>
   <g>
    <g transform="translate(0,640)">
     <path d="M0,0h960M14,-12V0M38,-12V0M62,-12V0M86,-12V0M110,-24V0M134,-12V0M158,-12V0M182,-12V0M206,-12V0M230,-24V0M254,-12V0M278,-12V0M302,-12V0M326,-12V0M350,-24V0M374,-12V0M398,-12V0M422,-12V0M446,-12V0M470,-24V0M494,-12V0M518,-12V0M542,-12V0M566,-12V0M590,-24V0M614,-12V0M638,-12V0M662,-12V0M686,-12V0M710,-24V0M734,-12V0M758,-12V0M782,-12V0M806,-12V0M830,-24V0M854,-12V0M878,-12V0M902,-12V0M926,-12V0M950,-24V0" style="stroke: black; stroke-width: 1;"></path>
     <g font-family="Arial" font-size="32" space="preserve" font-weight="bold" fill="black" text-anchor="middle">
      <text dy=".8em" transform="translate(110,6)">
       500
      </text>
      <text dy=".8em" transform="translate(230,6)">
       1000
      </text>
      <text dy=".8em" transform="translate(350,6)">
       1500
      </text>
      <text dy=".8em" transform="translate(470,6)">
       2000
      </text>
      <text dy=".8em" transform="translate(590,6)">
       2500
      </text>
      <text dy=".8em" transform="translate(710,6)">
       3000
      </text>
      <text dy=".8em" transform="translate(830,6)">
       3500
      </text>
      <text dy=".8em" transform="translate(950,6)">
       4000
      </text>
     </g>
     <g font-family="Arial" font-size="32" space="preserve" font-weight="bold" transform="translate(960,51)">
      <text fill="black" text-anchor="end" dy=".4em">
       energy (keV)
      </text>
     </g>
    </g>
    <g>
     <path d="M0,0v640M36,640H0M18,616H0M18,592H0M18,569H0M36,545H0M18,521H0M18,497H0M18,474H0M36,450H0M18,426H0M18,402H0M18,379H0M36,355H0M18,331H0M18,307H0M18,284H0M36,260H0M18,236H0M18,212H0M18,188H0M36,165H0M18,141H0M18,117H0M18,93H0M36,70H0M18,46H0M18,22H0" style="stroke: black; stroke-width: 1;"></path>
     <g font-family="Arial" font-size="32" space="preserve" font-weight="bold" fill="black" text-anchor="end">
      <text dy=".4em" transform="translate(-4,640)">
       0
      </text>
      <text dy=".4em" transform="translate(-4,545)">
       2000
      </text>
      <text dy=".4em" transform="translate(-4,450)">
       4000
      </text>
      <text dy=".4em" transform="translate(-4,355)">
       6000
      </text>
      <text dy=".4em" transform="translate(-4,260)">
       8000
      </text>
      <text dy=".4em" transform="translate(-4,165)">
       10000
      </text>
      <text dy=".4em" transform="translate(-4,70)">
       12000
      </text>
     </g>
     <g font-family="Arial" font-size="32" space="preserve" font-weight="bold" transform="translate(-77,0)">
      <text fill="black" text-anchor="end" dy=".4em" transform=" rotate(270)">
       counts
      </text>
     </g>
    </g>
   </g>
  </g>
  <g transform="translate(936,52)" font-family="Arial" font-size="22" space="preserve" fill="black">
   <path d="M0,0H240V128H0Z" style="fill: white; stroke: black; stroke-width: 1;"></path>
   <text text-anchor="middle" dy=".4em" transform="translate(120,16)">
    HPGe singles_1
   </text>
   <text text-anchor="start" dy=".4em" transform="translate(12,48)">
    Entries
   </text>
   <text text-anchor="end" dy=".4em" transform="translate(228,48)">
    1391705
   </text>
   <text text-anchor="start" dy=".4em" transform="translate(12,80)">
    Mean
   </text>
   <text text-anchor="end" dy=".4em" transform="translate(228,80)">
    422.0
   </text>
   <text text-anchor="start" dy=".4em" transform="translate(12,112)">
    Std Dev
   </text>
   <text text-anchor="end" dy=".4em" transform="translate(228,112)">
    353.4
   </text>
   <path d="M0,32h240" style="stroke: black; stroke-width: 1;"></path>
  </g>
 </g>
</svg>
